!!!OTL: 253. Volekh
!!!Genre:	Volekh
!!!Mode:	Major
!!!Listening/dance:	dance
!!!:	*g:dor
!!!One_Mode:	no
**kern
*thru
*I"P1
*clefG2
*k[f#]
*g:dor
=18:|!|:
*>B
8ggL
8ff#J
8ggL
8ff#J
12ggL
12ff#
12eeJ
=11
2dd
4b
=12
(8qdd/
8ccL)
8aJ
8ddL
8ccJ
8bL
8aJ
=13
2b
4g
=14
8ggL
8ff#J
8ggL
8ff#J
12ggL
12ff#
12eeJ
=15
2dd
4b
=16
8ccL
8aJ
8ddL
8ccJ
8bL
8aJ
=17
2.g
*>C
!!!Begin-Modulation
*g:dor
=18:|!|:
!LO:TX:a:i:t=G-raised-fourth
8ddL
8cc#X
(8qee/
8dd)
8cc#J
12ddL
12cc#
12b-XJ
=19
8cc#XL
8dd
8ee
(8qgg/
8ffnJ)
4dd
=20
8ddL
8cc#X
8dd
8cc#J
12ddL
12cc#
12b-XJ
=21
8ddL
8cc#X
8b-X
8aJ
4g
=22
8ddL
8cc#X
8dd
8cc#J
(8qee/
12ddL)
12cc#
12b-XJ
=23
8cc#XL
8dd
8eeJ
(8qgg/
8ffnJ)
4dd
=24
(8qcc#X/
2.dd)
=25
!LO:TX:b:Bi:t=Da Capo al Fine
(8qff#/
2.gg)
*>C
!!!End-Modulation
=:|!
!LO:TX:a:i:t=G-raised-fourth
8ddL
8cc#X
(8qee/
8dd)
8cc#J
12ddL
12cc#
12b-XJ
=19
8cc#XL
8dd
8ee
(8qgg/
8ffnJ)
4dd
=20
8ddL
8cc#X
8dd
8cc#J
12ddL
12cc#
12b-XJ
=21
8ddL
8cc#X
8b-X
8aJ
4g
=22
8ddL
8cc#X
8dd
8cc#J
(8qee/
12ddL)
12cc#
12b-XJ
=23
8cc#XL
8dd
8eeJ
(8qgg/
8ffnJ)
4dd
=24
(8qcc#X/
2.dd)
=25
!LO:TX:b:Bi:t=Da Capo al Fine
(8qff#/
2.gg)
!!!End-Modulation
=:|!
*-
